dist/svgs/core-ui-icons/brand/cib-server-fault.svg

<svg xmlns="http://www.w3.org/2000/svg" width="32" height="32" viewBox="0 0 32 32">
  <path d="M32 24.245v3.036h-6.521v-3.036zM0 24.104h15.339v3.031h-15.339v-3.036zM17.188 24.104h6.521v3.031h-6.521v-3.036zM25.479 19.297h6.521v3.031h-6.521zM0 19.156h15.339v3.031h-15.339zM17.188 19.156h6.521v3.031h-6.521zM25.479 14.693h6.521v3.031h-6.521zM0 14.552h15.339v3.031h-15.339zM17.188 14.552h6.521v3.031h-6.521zM25.479 9.745h6.521v3.036h-6.521zM0 9.609h15.339v3.031h-15.339v-3.042zM17.188 9.609h6.521v3.031h-6.521v-3.042zM25.479 4.865h6.521v3.036h-6.521v-3.042zM0 4.719h15.339v3.036h-15.339zM17.188 4.719h6.521v3.036h-6.521z"/>
</svg>

<svg xmlns="http://www.w3.org/2000/svg" viewBox="0 0 32 32"><path d="M32 24.245v3.036h-6.521v-3.036zm-32-.141h15.339v3.031H0v-3.036zm17.188 0h6.521v3.031h-6.521v-3.036zm8.291-4.807H32v3.031h-6.521zM0 19.156h15.339v3.031H0zm17.188 0h6.521v3.031h-6.521zm8.291-4.463H32v3.031h-6.521zM0 14.552h15.339v3.031H0zm17.188 0h6.521v3.031h-6.521zm8.291-4.807H32v3.036h-6.521zM0 9.609h15.339v3.031H0V9.598zm17.188 0h6.521v3.031h-6.521V9.598zm8.291-4.744H32v3.036h-6.521V4.859zM0 4.719h15.339v3.036H0zm17.188 0h6.521v3.036h-6.521z"/></svg>
